icons/extensions/py.svg

<?xml version="1.0" encoding="UTF-8"?>
<svg width="42px" height="42px" viewBox="0 0 42 42" version="1.1" xmlns="http://www.w3.org/2000/svg" xmlns:xlink="http://www.w3.org/1999/xlink">
    <!-- Generator: Sketch 44.1 (41455) - http://www.bohemiancoding.com/sketch -->
    <desc>Created with Sketch.</desc>
    <defs>
        <path d="M0,2.00494659 C0,0.897645164 0.889763236,0 2.00359486,0 L24.004543,0 C24.5543187,0 25.3127724,0.312772393 25.7057732,0.70577316 L29.2942268,4.29422684 C29.6840146,4.68401459 30,5.45092539 30,5.99477117 L30,22.0025781 C30,23.1057238 29.1021596,24 28.008383,24 L1.99161703,24 C0.891677316,24 0,23.1029738 0,21.9950534 L0,2.00494659 Z" id="path-1"></path>
    </defs>
    <g id="扩展名-(icons/extensions-5-10)" stroke="none" stroke-width="1" fill="none" fill-rule="evenodd">
        <g id="Python">
            <g id="Rectangle-+-Rectangle-Mask" transform="translate(6.000000, 9.000000)">
                <mask id="mask-2" fill="white">
                    <use xlink:href="#path-1"></use>
                </mask>
                <use id="Mask" fill="#FFFFFF" xlink:href="#path-1"></use>
                <path d="M0,0 L21,0 L21,8 L21,8 C21,9.65685425 19.6568542,11 18,11 L12,11 L12,11 C9.23857625,11 7,13.2385763 7,16 L7,24 L0,24 L0,0 Z" id="Rectangle" fill="#3A78AC" mask="url(#mask-2)"></path>
                <path d="M9,0 L30,0 L30,8 L30,8 C30,9.65685425 28.6568542,11 27,11 L21,11 L21,11 C18.2385763,11 16,13.2385763 16,16 L16,24 L9,24 L9,0 Z" id="Rectangle" fill="#F7D54B" mask="url(#mask-2)" transform="translate(19.500000, 12.000000) scale(-1, -1) translate(-19.500000, -12.000000) "></path>
            </g>
            <circle id="Oval" fill="#FFFFFF" cx="21.5" cy="14.5" r="2.5"></circle>
            <circle id="Oval" fill="#FFFFFF" cx="20.5" cy="27.5" r="2.5"></circle>
        </g>
    </g>
</svg>

<svg viewBox="0 0 42 42" xmlns="http://www.w3.org/2000/svg" xmlns:xlink="http://www.w3.org/1999/xlink"><defs><path d="M0 2.005A2 2 0 0 1 2.004 0h22c.55 0 1.309.313 1.702.706l3.588 3.588c.39.39.706 1.157.706 1.7v16.009A1.998 1.998 0 0 1 28.008 24H1.992C.892 24 0 23.103 0 21.995V2.005z" id="a"/></defs><g fill="none" fill-rule="evenodd"><g transform="translate(6 9)"><mask id="b" fill="#fff"><use xlink:href="#a"/></mask><use fill="#FFF" xlink:href="#a"/><path d="M0 0h21v8a3 3 0 0 1-3 3h-6a5 5 0 0 0-5 5v8H0V0z" fill="#3A78AC" mask="url(#b)"/><path d="M9 0h21v8a3 3 0 0 1-3 3h-6a5 5 0 0 0-5 5v8H9V0z" fill="#F7D54B" mask="url(#b)" transform="rotate(180 19.5 12)"/></g><circle fill="#FFF" cx="21.5" cy="14.5" r="2.5"/><circle fill="#FFF" cx="20.5" cy="27.5" r="2.5"/></g></svg>
